assets/symbols/mulberry/circuit.svg

<svg height="850.394" viewBox="0 0 850.394 850.394" width="850.394" xmlns="http://www.w3.org/2000/svg"><path d="m153.33 358.99c33.27.28 60.14 27.34 60.14 60.67 0 33.32-26.87 60.38-60.14 60.66-.18.01-.35.01-.53.01-33.51 0-60.67-27.17-60.67-60.67 0-33.51 27.16-60.68 60.67-60.68.18 0 .35 0 .53.01z" fill="#c8c8c8"/><g fill="none"><g stroke="#231f20"><path d="m153.33 358.99c33.27.28 60.14 27.34 60.14 60.67 0 33.32-26.87 60.38-60.14 60.66-.18.01-.35.01-.53.01-33.51 0-60.67-27.17-60.67-60.67 0-33.51 27.16-60.68 60.67-60.68.18 0 .35 0 .53.01z" stroke-width="21"/><g stroke-width="14"><path d="m153.33 361.32v-128.77h567.84l-.52 110.64 36.53 22.48-74.37 37.96 66.54 25.89-59.5 36.23 31.32 11.06v129.43h-567.84v-127.88"/><path d="m501.58 262.68 33.13-30.08-.06-.05-33.11-30.01m-79.61 433.57-32.91-29.87-.22-.2 33.18-30.07m-230.6-273.14v47.88m-23.83-24.06h47.88m-48.8 175.21h47.88"/></g></g><path d="m0 0h850.394v850.394h-850.394z"/></g></svg>

<svg xmlns="http://www.w3.org/2000/svg" width="850.394" height="850.394" viewBox="0 0 850.394 850.394" overflow="visible"><path d="M153.33 358.99c33.27.28 60.14 27.34 60.14 60.67 0 33.32-26.87 60.38-60.14 60.66-.18.01-.35.01-.53.01-33.51 0-60.67-27.17-60.67-60.67 0-33.51 27.16-60.68 60.67-60.68.18 0 .35 0 .53.01z" fill="#c8c8c8"/><g fill="none" stroke="#231f20"><path d="M153.33 358.99c33.27.28 60.14 27.34 60.14 60.67 0 33.32-26.87 60.38-60.14 60.66-.18.01-.35.01-.53.01-33.51 0-60.67-27.17-60.67-60.67 0-33.51 27.16-60.68 60.67-60.68.18 0 .35 0 .53.01z" stroke-width="21"/><path stroke-width="14" d="M153.33 361.32V232.55h567.84l-.52 110.64 36.53 22.48-74.37 37.96 66.54 25.89-59.5 36.23 31.32 11.06v129.43H153.33V478.36"/><path stroke-width="14" d="M501.58 262.68l33.13-30.08-.06-.05-33.11-30.01M421.93 636.11l-32.91-29.87-.22-.2 33.18-30.07M191.38 302.83V350.71M167.55 326.65H215.43M166.63 501.86h47.88"/></g><path fill="none" d="M0 0h850.394v850.394H0z"/></svg>
